X: 283
T:Salve regina
N: Derived from Jos2506-Salve_regina.krn
C: Josquin des Prez
%%abc-version 2.0
%%abcx-abcm2ps-target-version 5.9.1 (29 Sep 2008)
%%abc-creator hum2abc beta
%%abcx-conversion-date 2019/02/12 16:15:52
%%abc-edited-by Jesse Rodin
%%abc-edited-by Will Watson 13/09/2011
%%abcx-initial-encoding-date 2011/09/13/
%%humdrum-veritas 3996810260
%%humdrum-veritas-data 3968264276
%%linebreak <none>
%%barnumbers 0
L: 1/4
M: 2/1
Q: 1/2=120
V: 1 clef=treble
V: 2 clef=treble
V: 3 clef=treble-8
V: 4 clef=treble-8
V: 5 clef=bass
V: 6 clef=bass
K: F
[V:1] z8 | 
[V:2] z8 | 
[V:3] z8 | 
[V:4] d8 | 
[V:5] z8 | 
[V:6] z8 | 
[V:1] z8 | 
[V:2] z8 | 
[V:3] z8 | 
[V:4] c4d4 | 
[V:5] z8 | 
[V:6] z4G,4- | 
[V:1] z8 | 
[V:2] z8 | 
[V:3] z8 | 
[V:4] G2d4c2 | 
[V:5] z8 | 
[V:6] G,4F,4 | 
[V:1] d8 | 
[V:2] z8 | 
[V:3] z8 | 
[V:4] B3Gg3f | 
[V:5] z8 | 
[V:6] G,8 | 
[V:1] c4d4- | 
[V:2] G8- | 
[V:3] z4d4- | 
[V:4] e4dcBA | 
[V:5] z8 | 
[V:6] C,4G,4- | 
[V:1] d4G4 | 
[V:2] G8 | 
[V:3] d4c4 | 
[V:4] G4z2G2 | 
[V:5] z8 | 
[V:6] G,2F,2E,4 | 
[V:1] d6c2 | 
[V:2] F4G4- | 
[V:3] d8 | 
[V:4] A4B3c | 
[V:5] z4G,4- | 
[V:6] D,4z4 | 
[V:1] B4A4 | 
[V:2] G4C4 | 
[V:3] G4z4 | 
[V:4] d3ef2c2- | 
[V:5] G,4F,4 | 
[V:6] z8 | 
[V:1] d8 | 
[V:2] G6F2 | 
[V:3] z8 | 
[V:4] c2BAB4 | 
[V:5] G,8 | 
[V:6] z8 | 
[V:1] c4d4- | 
[V:2] E4DCB,A, | 
[V:3] z4d4- | 
[V:4] G4g4- | 
[V:5] C,4G,4- | 
[V:6] z8 | 
[V:1] d4G4 | 
[V:2] G,4z2G,2 | 
[V:3] d4c4 | 
[V:4] g8 | 
[V:5] G,2F,2E,4 | 
[V:6] z8 | 
[V:1] z8 | 
[V:2] A,8 | 
[V:3] d8 | 
[V:4] f8 | 
[V:5] D,8 | 
[V:6] z8 | 
[V:1] z4z2G2 | 
[V:2] B,3CD3E | 
[V:3] G2d3cB2 | 
[V:4] g8 | 
[V:5] z8 | 
[V:6] G,8 | 
[V:1] A4B4- | 
[V:2] F2C4B,A, | 
[V:3] A4G4 | 
[V:4] c4g4- | 
[V:5] z4D4- | 
[V:6] F,4G,4- | 
[V:1] B2AGc4 | 
[V:2] B,4G,4 | 
[V:3] z4g4- | 
[V:4] g2f2e4 | 
[V:5] D4C4 | 
[V:6] G,4C,4 | 
[V:1] B4z4 | 
[V:2] z4z2D2- | 
[V:3] g8- | 
[V:4] d2G2d4 | 
[V:5] D4G,4- | 
[V:6] G,6F,2 | 
[V:1] z2G2A4 | 
[V:2] D2C2D4 | 
[V:3] g4f4 | 
[V:4] e4f2d2- | 
[V:5] G,4z4 | 
[V:6] E,4D,4 | 
[V:1] B6AG | 
[V:2] G,4G4 | 
[V:3] g4G4 | 
[V:4] dBd4cB | 
[V:5] z4z2G,2- | 
[V:6] z8 | 
[V:1] c4B2G2- | 
[V:2] E2F2D4 | 
[V:3] z4z2d2- | 
[V:4] A4B4 | 
[V:5] G,2F,2G,4 | 
[V:6] z8 | 
[V:1] GFGAB2A2 | 
[V:2] z4z2D2- | 
[V:3] d2c2d4 | 
[V:4] G4z4 | 
[V:5] E,4D,4 | 
[V:6] z2G,4F,2 | 
[V:1] B2G2z2d2 | 
[V:2] D2C2D4- | 
[V:3] G4A4 | 
[V:4] z2g4f2 | 
[V:5] z4z2A,2 | 
[V:6] G,2E,2D,4 | 
[V:1] d3cB2A2 | 
[V:2] D8 | 
[V:3] G4z4 | 
[V:4] g2GABcd2- | 
[V:5] B,3A,G,2F,2 | 
[V:6] z8 | 
[V:1] G4F3G | 
[V:2] G,4A,4 | 
[V:3] z8 | 
[V:4] d2c2d4 | 
[V:5] E,4D,4- | 
[V:6] z8 | 
[V:1] A4z4 | 
[V:2] z2D2D3C | 
[V:3] F4G4 | 
[V:4] A4z4 | 
[V:5] D,4z4 | 
[V:6] z2A,2B,3A, | 
[V:1] z8 | 
[V:2] B,2A,2G,4 | 
[V:3] B2c3Bc2 | 
[V:4] z4z2e2 | 
[V:5] z8 | 
[V:6] G,2F,2E,4 | 
[V:1] z2A2B3A | 
[V:2] A,4z4 | 
[V:3] d4G4- | 
[V:4] f3ed3c | 
[V:5] z8 | 
[V:6] D,4z4 | 
[V:1] G2F2E4 | 
[V:2] z4z2E2 | 
[V:3] G4A4 | 
[V:4] BAd4c2 | 
[V:5] z8 | 
[V:6] z8 | 
[V:1] D2A2F2B2- | 
[V:2] F3ED3C | 
[V:3] z8 | 
[V:4] d2c2d4- | 
[V:5] z2A,2B,3A, | 
[V:6] z8 | 
[V:1] B2A2G4 | 
[V:2] B,A,D4^C2 | 
[V:3] z4z2e2 | 
[V:4] d4G4 | 
[V:5] G,2F,2E,4 | 
[V:6] z8 | 
[V:1] z8 | 
[V:2] D8 | 
[V:3] f3ed3c | 
[V:4] A4z4 | 
[V:5] D,4G,4 | 
[V:6] z2A,2B,3A, | 
[V:1] z8 | 
[V:2] z8 | 
[V:3] B2A2G4 | 
[V:4] z2d4c2 | 
[V:5] z4z2G,2 | 
[V:6] G,2F,2E,4 | 
[V:1] z8 | 
[V:2] z8 | 
[V:3] z2d4c2 | 
[V:4] d4G4 | 
[V:5] F,2D,2E,4 | 
[V:6] D,4z2G,2 | 
[V:1] z8 | 
[V:2] z4z2G2 | 
[V:3] d4G4 | 
[V:4] z8 | 
[V:5] D,4z4 | 
[V:6] F,2D,2E,4 | 
[V:1] z2d4c2 | 
[V:2] F2D2E4 | 
[V:3] A3Bc4 | 
[V:4] z4z2g2 | 
[V:5] z8 | 
[V:6] D,4z4 | 
[V:1] d4G4 | 
[V:2] D4z2G2- | 
[V:3] z8 | 
[V:4] f2d2e4 | 
[V:5] z4C4 | 
[V:6] z8 | 
[V:1] d8- | 
[V:2] GAB4A2 | 
[V:3] z4d4- | 
[V:4] d4z2d2 | 
[V:5] B,2G,4A,2 | 
[V:6] G,6F,2 | 
[V:1] d4e4 | 
[V:2] G3FE3D/C/ | 
[V:3] d4c4- | 
[V:4] B2G2g3f | 
[V:5] B,4G,4- | 
[V:6] G,4C,4- | 
[V:1] c8 | 
[V:2] G8 | 
[V:3] c8 | 
[V:4] e8 | 
[V:5] G,8- | 
[V:6] C,8 | 
[V:1] d4d4 | 
[V:2] z2G,2A,2D2- | 
[V:3] B4A4 | 
[V:4] d8 | 
[V:5] G,4D,4 | 
[V:6] z2G,2F,2D,2 | 
[V:1] z8 | 
[V:2] D2^C2D4 | 
[V:3] G4z2d2 | 
[V:4] z2G2A2d2- | 
[V:5] z2G,2F,2D,2 | 
[V:6] E,4D,4 | 
[V:1] z2G2F2D2 | 
[V:2] z4z2F2 | 
[V:3] B2G2A4 | 
[V:4] d2c2d2A2 | 
[V:5] E,4D,4 | 
[V:6] z8 | 
[V:1] E8 | 
[V:2] G8 | 
[V:3] G8 | 
[V:4] c6c2 | 
[V:5] z8 | 
[V:6] C,8 | 
[V:1] D4z4 | 
[V:2] F6ED | 
[V:3] z8 | 
[V:4] A8- | 
[V:5] z8 | 
[V:6] D,4F,4- | 
[V:1] z8 | 
[V:2] C2D2E4 | 
[V:3] z4c4 | 
[V:4] A4z4 | 
[V:5] F,4G,4 | 
[V:6] F,2E,D,C,4 | 
[V:1] z8 | 
[V:2] F4D4- | 
[V:3] d4f4- | 
[V:4] z8 | 
[V:5] B,6A,G, | 
[V:6] B,,4D,4- | 
[V:1] F4G4 | 
[V:2] D4z4 | 
[V:3] f2ede4 | 
[V:4] z4c4 | 
[V:5] A,4z4 | 
[V:6] D,4C,4 | 
[V:1] B6AG | 
[V:2] z8 | 
[V:3] d2B2c4 | 
[V:4] d4f3e | 
[V:5] z8 | 
[V:6] G,4F,4- | 
[V:1] A2f4e2 | 
[V:2] z4C4 | 
[V:3] A4z4 | 
[V:4] fga4g2 | 
[V:5] z2F,2G,4 | 
[V:6] F,4C,4 | 
[V:1] d3cB4 | 
[V:2] D4F2G2 | 
[V:3] z8 | 
[V:4] f3edcd2- | 
[V:5] B,6A,G, | 
[V:6] z8 | 
[V:1] A8- | 
[V:2] E4D3C/B,/ | 
[V:3] z2e2f3e | 
[V:4] d2^c2d4 | 
[V:5] A,8 | 
[V:6] z4D,4 | 
[V:1] A4z4 | 
[V:2] A,4z2E2 | 
[V:3] dcd4^c2 | 
[V:4] z4G4 | 
[V:5] D,4z4 | 
[V:6] F,4E,4 | 
[V:1] z8 | 
[V:2] F3EDCD2- | 
[V:3] d4z4 | 
[V:4] B4A4 | 
[V:5] z2D,2F,4 | 
[V:6] D,8 | 
[V:1] z8 | 
[V:2] D2^C2D4 | 
[V:3] z8 | 
[V:4] G2e2f3e | 
[V:5] E,4D,4- | 
[V:6] z2G,2B,4 | 
[V:1] z2A2B3A | 
[V:2] z8 | 
[V:3] z4G4 | 
[V:4] dcd4B2- | 
[V:5] D,4z2G,2- | 
[V:6] A,4G,4 | 
[V:1] GFG4^F2 | 
[V:2] z4z2A,2 | 
[V:3] B4A4 | 
[V:4] B2G2d4 | 
[V:5] G,4D,4 | 
[V:6] z8 | 
[V:1] G4z4 | 
[V:2] B,3A,B,2C2 | 
[V:3] G4z4 | 
[V:4] d3cB2A2 | 
[V:5] G,4z4 | 
[V:6] z2G,4F,2 | 
[V:1] z8 | 
[V:2] D3CB,2A,2 | 
[V:3] z8 | 
[V:4] G4z4 | 
[V:5] z2G,4F,2 | 
[V:6] B,3A,B,2C2 | 
[V:1] z8 | 
[V:2] G,4z4 | 
[V:3] z2G4F2 | 
[V:4] z8 | 
[V:5] B,3A,B,2C2 | 
[V:6] D3CB,2A,2 | 
[V:1] z8 | 
[V:2] z8 | 
[V:3] B3AB2c2 | 
[V:4] z8 | 
[V:5] D2G,3F,G,2 | 
[V:6] G,3F,_E,4 | 
[V:1] z8 | 
[V:2] z8 | 
[V:3] d3cd2e2 | 
[V:4] z8 | 
[V:5] A,2B,4C2 | 
[V:6] D,2G,3F,G,2 | 
[V:1] z8 | 
[V:2] z8 | 
[V:3] f3efgf2 | 
[V:4] z8 | 
[V:5] D4C4 | 
[V:6] A,2B,4A,2 | 
[V:1] z4z2G2- | 
[V:2] z8 | 
[V:3] edd4^c2 | 
[V:4] z8 | 
[V:5] B,2A,4G,2 | 
[V:6] G,2F,2E,4 | 
[V:1] G2F2B3A | 
[V:2] z4z2G2- | 
[V:3] d6c2 | 
[V:4] z8 | 
[V:5] A,4G,4 | 
[V:6] D,4z4 | 
[V:1] B2c2d3c | 
[V:2] G2F2B3A | 
[V:3] B2A2G4 | 
[V:4] z4z2G2- | 
[V:5] z8 | 
[V:6] z8 | 
[V:1] B2A2z2F2 | 
[V:2] B2c2d3c | 
[V:3] z8 | 
[V:4] G2F2B3c | 
[V:5] z8 | 
[V:6] z8 | 
[V:1] G2A3GA2 | 
[V:2] d2e2f3e | 
[V:3] z8 | 
[V:4] B2c2d3c | 
[V:5] z8 | 
[V:6] z8 | 
[V:1] B2c3Bc2 | 
[V:2] F2G2A2F2- | 
[V:3] z8 | 
[V:4] d2e2f4 | 
[V:5] z8 | 
[V:6] z8 | 
[V:1] d6e2- | 
[V:2] FEF2G4 | 
[V:3] z8 | 
[V:4] B3AB2c2 | 
[V:5] z8 | 
[V:6] z8 | 
[V:1] edd4^c2 | 
[V:2] A2D2E4 | 
[V:3] z4z2g2- | 
[V:4] A2B2c4 | 
[V:5] z8 | 
[V:6] z8 | 
[V:1] d4z4 | 
[V:2] D4z2G2- | 
[V:3] g2f2e4 | 
[V:4] G4z4 | 
[V:5] z2D4C2 | 
[V:6] z8 | 
[V:1] z8 | 
[V:2] G2F4E2- | 
[V:3] d4z4 | 
[V:4] z2d4c2 | 
[V:5] B,4A,4 | 
[V:6] z8 | 
[V:1] z8 | 
[V:2] E2D2EDD2- | 
[V:3] z8 | 
[V:4] B6A2 | 
[V:5] G,4z4 | 
[V:6] z2G,4F,2 | 
[V:1] z4z2d2- | 
[V:2] D2^C2D4 | 
[V:3] z2g4f2 | 
[V:4] G4A4 | 
[V:5] z8 | 
[V:6] E,4D,4 | 
[V:1] d2c2B4- | 
[V:2] A,4z2G,A, | 
[V:3] e4d4- | 
[V:4] z2A2B4 | 
[V:5] z4z2G,2- | 
[V:6] z8 | 
[V:1] B2A2G3A | 
[V:2] B,CD4C2 | 
[V:3] d4G4 | 
[V:4] G2A2BGg2- | 
[V:5] G,2F,2_E,4 | 
[V:6] z8 | 
[V:1] B2A3GA2 | 
[V:2] D4A,4 | 
[V:3] z8 | 
[V:4] g2f2e4 | 
[V:5] D,4z4 | 
[V:6] z2D4C2 | 
[V:1] F2G2A4 | 
[V:2] z8 | 
[V:3] z8 | 
[V:4] d3c/d/edd2- | 
[V:5] z2G,4F,2 | 
[V:6] B,4A,4 | 
[V:1] z4z2d2- | 
[V:2] z2G4F2 | 
[V:3] z2G2A2B2 | 
[V:4] d2^c2d4 | 
[V:5] E,4D,4 | 
[V:6] z8 | 
[V:1] d2c2B4 | 
[V:2] E4D4 | 
[V:3] c3BG4 | 
[V:4] z2g4f2 | 
[V:5] z8 | 
[V:6] z4z2D2- | 
[V:1] A4z2d2- | 
[V:2] z2E2F2D2 | 
[V:3] A4z4 | 
[V:4] e4d2G2 | 
[V:5] z8 | 
[V:6] D2C2B,4 | 
[V:1] d2c2B4 | 
[V:2] E2F2G4 | 
[V:3] z4z2G2 | 
[V:4] c4d4 | 
[V:5] z8 | 
[V:6] A,4G,3F, | 
[V:1] A2G3F/G/A2- | 
[V:2] F2G2E2C2- | 
[V:3] A2B2c3B | 
[V:4] z2d2e2f2 | 
[V:5] z2G,4F,2 | 
[V:6] D,2G,2C,2z2 | 
[V:1] AGG4^F2 | 
[V:2] CDE2F2D2- | 
[V:3] G4A4 | 
[V:4] g2c2d4 | 
[V:5] E,4D,4 | 
[V:6] z2C,2F,2G,A, | 
[V:1] G8- | 
[V:2] DCB,A,G,A,B,C | 
[V:3] G8 | 
[V:4] z2G2B4 | 
[V:5] z4z2G,2 | 
[V:6] B,6G,2 | 
[V:1] G8 | 
[V:2] D8- | 
[V:3] z2G2B4 | 
[V:4] z8 | 
[V:5] B,4z2G,2 | 
[V:6] G,8 | 
[V:1] z4G4- | 
[V:2] D8 | 
[V:3] z2G2B2B2 | 
[V:4] z8 | 
[V:5] B,3A,G,2F,2 | 
[V:6] z8 | 
[V:1] G4F4 | 
[V:2] G,4A,4 | 
[V:3] c2c2d4 | 
[V:4] z8 | 
[V:5] E,4D,4 | 
[V:6] z8 | 
[V:1] B4c4 | 
[V:2] G,4z2F,2 | 
[V:3] z8 | 
[V:4] z2d2f4 | 
[V:5] z8 | 
[V:6] z8 | 
[V:1] d6e2- | 
[V:2] B,6G,2 | 
[V:3] z8 | 
[V:4] z2d2f2g2- | 
[V:5] z8 | 
[V:6] z8 | 
[V:1] edd4^c2 | 
[V:2] B,2B,2A,4 | 
[V:3] z8 | 
[V:4] gfede4 | 
[V:5] z8 | 
[V:6] z8 | 
[V:1] d8- | 
[V:2] z4z2G,2 | 
[V:3] z8 | 
[V:4] d8 | 
[V:5] z8 | 
[V:6] z2G,2B,4 | 
[V:1] d8 | 
[V:2] B,4z2G,2 | 
[V:3] z8 | 
[V:4] z4d4- | 
[V:5] z8 | 
[V:6] z2G,2B,3A, | 
[V:1] z8 | 
[V:2] B,2B,2C2C2 | 
[V:3] z8 | 
[V:4] d4c4 | 
[V:5] z4z2G,2 | 
[V:6] G,2F,2E,4 | 
[V:1] z2d2f4 | 
[V:2] D4D2F2 | 
[V:3] z4z2d2 | 
[V:4] f3ga4- | 
[V:5] B,2A,2A,2A,2 | 
[V:6] D,8- | 
[V:1] z2d2f3e | 
[V:2] D2F3GA2 | 
[V:3] f4z2d2 | 
[V:4] a8- | 
[V:5] A,4z2A,2 | 
[V:6] D,8 | 
[V:1] d2c2d2e2- | 
[V:2] z2E2F2E2 | 
[V:3] f2e2d2c2 | 
[V:4] a4z2a2- | 
[V:5] D,2A,2D,2A,2- | 
[V:6] z4z2A,2 | 
[V:1] edd4^c2 | 
[V:2] F3GA2E2 | 
[V:3] d4e4 | 
[V:4] a2a2a4- | 
[V:5] A,G,A,B,C2A,2- | 
[V:6] D,2D,2A,2A,2 | 
[V:1] d8 | 
[V:2] F3GA4 | 
[V:3] d4z2d2 | 
[V:4] a4f4 | 
[V:5] A,G,F,E,D,4 | 
[V:6] D,4z2D,2 | 
[V:1] z8 | 
[V:2] z8 | 
[V:3] c2B2A4 | 
[V:4] z4z2d2 | 
[V:5] z4D,4 | 
[V:6] E,4F,4 | 
[V:1] z8 | 
[V:2] z8 | 
[V:3] G4z2d2 | 
[V:4] c2B2A4 | 
[V:5] E,4F,4 | 
[V:6] G,4D,4 | 
[V:1] z8 | 
[V:2] z8 | 
[V:3] c2B2A4 | 
[V:4] G4z2d2 | 
[V:5] G,4D,4 | 
[V:6] E,4F,4 | 
[V:1] G4A4 | 
[V:2] z2G2F2E2 | 
[V:3] G4z4 | 
[V:4] c2B2A4 | 
[V:5] E,4F,4 | 
[V:6] G,4z4 | 
[V:1] B4c4 | 
[V:2] D4C4 | 
[V:3] z2G2A4 | 
[V:4] z2g2f2e2 | 
[V:5] G,4z4 | 
[V:6] z8 | 
[V:1] z4G4 | 
[V:2] F4E2G2 | 
[V:3] B4c4 | 
[V:4] d4c4 | 
[V:5] z8 | 
[V:6] z8 | 
[V:1] A4B4 | 
[V:2] F2E2D4 | 
[V:3] z4G4 | 
[V:4] z4z2g2 | 
[V:5] z8 | 
[V:6] z8 | 
[V:1] c4z4 | 
[V:2] C4z4 | 
[V:3] A4B4 | 
[V:4] f2e2d4- | 
[V:5] z8 | 
[V:6] z4z2G,2 | 
[V:1] z8 | 
[V:2] z2G,2A,2B,2 | 
[V:3] A2G4F2 | 
[V:4] d2c2f4 | 
[V:5] z8 | 
[V:6] F,2E,2D,4 | 
[V:1] z8 | 
[V:2] C3B,A,2G,2- | 
[V:3] G4z4 | 
[V:4] e4d2c2 | 
[V:5] z2G,2F,2E,2 | 
[V:6] C,4z2G,2 | 
[V:1] z4G4 | 
[V:2] G,2F,2G,2G2- | 
[V:3] z8 | 
[V:4] f4e4 | 
[V:5] D,4C,4 | 
[V:6] A,2B,2C3B, | 
[V:1] A4B4 | 
[V:2] G2F2G2F2- | 
[V:3] z4z2d2 | 
[V:4] c4d4 | 
[V:5] z8 | 
[V:6] A,4G,2B,2 | 
[V:1] A2G4^F2 | 
[V:2] FEDCD4- | 
[V:3] c2B2A4 | 
[V:4] z8 | 
[V:5] z2G,2A,4 | 
[V:6] F,2G,2D,4 | 
[V:1] G8- | 
[V:2] D2B,2z2G,2 | 
[V:3] G8 | 
[V:4] d8 | 
[V:5] B,2G,2B,3A, | 
[V:6] G,4z4 | 
[V:1] G8 | 
[V:2] B,2B,2C2C2 | 
[V:3] z8 | 
[V:4] d4c4 | 
[V:5] G,3F,E,4 | 
[V:6] z4z2G,2 | 
[V:1] z8 | 
[V:2] D8- | 
[V:3] z8 | 
[V:4] f6f2 | 
[V:5] D,8 | 
[V:6] A,4B,2A,2 | 
[V:1] z4G4 | 
[V:2] D4B,4 | 
[V:3] z4z2d2 | 
[V:4] g3fedd2- | 
[V:5] z8 | 
[V:6] B,3A,G,3F, | 
[V:1] G4F4 | 
[V:2] G,4A,2F2 | 
[V:3] e4f2d2 | 
[V:4] d2^c2d4 | 
[V:5] z8 | 
[V:6] E,4D,4 | 
[V:1] B2B2c3B | 
[V:2] G6F2 | 
[V:3] _e6d2 | 
[V:4] z8 | 
[V:5] z8 | 
[V:6] z8 | 
[V:1] AGG4^F2 | 
[V:2] E2D4C2 | 
[V:3] c2B2A4 | 
[V:4] z2g2a4 | 
[V:5] z8 | 
[V:6] z8 | 
[V:1] G2B4GA | 
[V:2] D8 | 
[V:3] G8- | 
[V:4] b2g2b3a | 
[V:5] z8 | 
[V:6] z8 | 
[V:1] Bcd4^c2 | 
[V:2] z8 | 
[V:3] G4z4 | 
[V:4] g3fe4 | 
[V:5] z2G,2A,4 | 
[V:6] z8 | 
[V:1] d8- | 
[V:2] z4z2G,2 | 
[V:3] z8 | 
[V:4] d4z2d2 | 
[V:5] B,2G,2B,3A, | 
[V:6] z8 | 
[V:1] d4z4 | 
[V:2] B,2B,2C2C2 | 
[V:3] z8 | 
[V:4] d4c4 | 
[V:5] G,3F,E,4 | 
[V:6] z4z2G,2 | 
[V:1] z8 | 
[V:2] D8- | 
[V:3] z8 | 
[V:4] f6f2 | 
[V:5] D,8 | 
[V:6] A,4B,2A,2 | 
[V:1] z4z2G2 | 
[V:2] D4B,4 | 
[V:3] z4z2d2 | 
[V:4] g3fedd2- | 
[V:5] z8 | 
[V:6] B,3A,G,3F, | 
[V:1] G4F4 | 
[V:2] G,4A,2F2 | 
[V:3] e4f4 | 
[V:4] d2^c2d4 | 
[V:5] z8 | 
[V:6] E,4D,4 | 
[V:1] B2B2c3B | 
[V:2] G6F2 | 
[V:3] d4e3d | 
[V:4] z8 | 
[V:5] G,4C,4 | 
[V:6] z4G,4 | 
[V:1] AGG4^F2 | 
[V:2] E4D4 | 
[V:3] c3BA4 | 
[V:4] z2G2A3B | 
[V:5] z4D,4 | 
[V:6] C,4z4 | 
[V:1] G8- | 
[V:2] z2G,2C4- | 
[V:3] G8- | 
[V:4] c3d_e2c2 | 
[V:5] _E,8 | 
[V:6] C,8 | 
[V:1] G8- | 
[V:2] C2B,A,B,3C | 
[V:3] G8- | 
[V:4] d8 | 
[V:5] D,8- | 
[V:6] G,,8- | 
[V:1] G8 ||  
[V:2] D8 ||  
[V:3] G8 ||  
[V:4] B8 ||  
[V:5] D,8 ||  
[V:6] G,,8 ||  
[V:1]  [K:F] [K:clef=treble][M:2/1]z8 | 
[V:2]  [K:F] [K:clef=treble][M:2/1]z8 | 
[V:3]  [K:F] [K:clef=treble-8][M:2/1]z8 | 
[V:4]  [K:F] [K:clef=treble-8][M:2/1]B4c4 | 
[V:5]  [K:F] [K:clef=bass][M:2/1]z8 | 
[V:6]  [K:F] [K:clef=bass][M:2/1]z4F,4 | 
[V:1] z8 | 
[V:2] z8 | 
[V:3] z8 | 
[V:4] B4A3B | 
[V:5] z8 | 
[V:6] G,4F,4 | 
[V:1] z8 | 
[V:2] z8 | 
[V:3] z8 | 
[V:4] c2d4^c2 | 
[V:5] z8 | 
[V:6] E,2D,2E,4 | 
[V:1] z8 | 
[V:2] z8 | 
[V:3] z8 | 
[V:4] d4z4 | 
[V:5] z8 | 
[V:6] D,8- | 
[V:1] z8 | 
[V:2] z8 | 
[V:3] z8 | 
[V:4] f4c2d2- | 
[V:5] z8 | 
[V:6] D,8 | 
[V:1] z8 | 
[V:2] z8 | 
[V:3] z8 | 
[V:4] d2cBA2GA | 
[V:5] z8 | 
[V:6] B,4F,2G,2- | 
[V:1] z8 | 
[V:2] z8 | 
[V:3] z8 | 
[V:4] Bcdef2e2- | 
[V:5] z8 | 
[V:6] G,2F,E,D,2C,2 | 
[V:1] z8 | 
[V:2] z8 | 
[V:3] z8 | 
[V:4] edd4^c2 | 
[V:5] z8 | 
[V:6] F,2G,2E,4 | 
[V:1] z8 | 
[V:2] z8 | 
[V:3] z8 | 
[V:4] d8- | 
[V:5] z8 | 
[V:6] D,4z2G,2 | 
[V:1] z8 | 
[V:2] z8 | 
[V:3] z8 | 
[V:4] d8 | 
[V:5] z8 | 
[V:6] G,4F,2G,2- | 
[V:1] z8 | 
[V:2] z8 | 
[V:3] z8 | 
[V:4] z2g2g4 | 
[V:5] z8 | 
[V:6] G,F,E,D,E,4 | 
[V:1] z8 | 
[V:2] z8 | 
[V:3] z8 | 
[V:4] f3ef2g2- | 
[V:5] z8 | 
[V:6] D,E,F,G,A,2B,2 | 
[V:1] z8 | 
[V:2] z8 | 
[V:3] z8 | 
[V:4] gfede4 | 
[V:5] z8 | 
[V:6] C3B,A,G,A,2 | 
[V:1] z8 | 
[V:2] z8 | 
[V:3] z8 | 
[V:4] d4z4 | 
[V:5] z8 | 
[V:6] F,2G,3F,E,D, | 
[V:1] z8 | 
[V:2] z8 | 
[V:3] z8 | 
[V:4] g4f4 | 
[V:5] z8 | 
[V:6] E,4D,4 | 
[V:1] z8 | 
[V:2] z8 | 
[V:3] z8 | 
[V:4] e2d4cB | 
[V:5] z8 | 
[V:6] z4G,4 | 
[V:1] z8 | 
[V:2] z8 | 
[V:3] z8 | 
[V:4] A3Bc2d2- | 
[V:5] z8 | 
[V:6] F,4E,2D,2 | 
[V:1] z8 | 
[V:2] z8 | 
[V:3] z8 | 
[V:4] dcc4=B2 | 
[V:5] z8 | 
[V:6] E,2F,2D,4 | 
[V:1] z8 | 
[V:2] z8 | 
[V:3] z8 | 
[V:4] c4z4 | 
[V:5] z8 | 
[V:6] C,8- | 
[V:1] z8 | 
[V:2] z8 | 
[V:3] z8 | 
[V:4] G4A4 | 
[V:5] z8 | 
[V:6] C,4z4 | 
[V:1] z8 | 
[V:2] z8 | 
[V:3] z8 | 
[V:4] B4A2F2 | 
[V:5] z8 | 
[V:6] G,4A,4 | 
[V:1] z8 | 
[V:2] z8 | 
[V:3] z8 | 
[V:4] G4F2f2 | 
[V:5] z8 | 
[V:6] B,4A,2F,2 | 
[V:1] z8 | 
[V:2] z8 | 
[V:3] z8 | 
[V:4] e2d3cAB | 
[V:5] z8 | 
[V:6] G,3F,D,E,F,G, | 
[V:1] z8 | 
[V:2] z8 | 
[V:3] z8 | 
[V:4] cdefg2a2- | 
[V:5] z8 | 
[V:6] A,B,C3B,A,G, | 
[V:1] z8 | 
[V:2] z8 | 
[V:3] z8 | 
[V:4] agf4e2 | 
[V:5] z8 | 
[V:6] F,2A,2G,4 | 
[V:1] z8 | 
[V:2] z8 | 
[V:3] z8 | 
[V:4] f4z4 | 
[V:5] z8 | 
[V:6] F,8- | 
[V:1] z8 | 
[V:2] z8 | 
[V:3] z8 | 
[V:4] c4d4 | 
[V:5] z8 | 
[V:6] F,4z4 | 
[V:1] z8 | 
[V:2] z8 | 
[V:3] z8 | 
[V:4] f4e2d2- | 
[V:5] z8 | 
[V:6] F,4G,4 | 
[V:1] z8 | 
[V:2] z8 | 
[V:3] z8 | 
[V:4] dcBAG2c2 | 
[V:5] z8 | 
[V:6] B,6A,2 | 
[V:1] z8 | 
[V:2] z8 | 
[V:3] z8 | 
[V:4] d2e2f4 | 
[V:5] z8 | 
[V:6] B,2C2D2B,2 | 
[V:1] z8 | 
[V:2] z8 | 
[V:3] z8 | 
[V:4] g2a3gfe | 
[V:5] z8 | 
[V:6] B,2C2D3C | 
[V:1] z8 | 
[V:2] z8 | 
[V:3] z8 | 
[V:4] dcBAGABc | 
[V:5] z8 | 
[V:6] B,A,G,A,B,CD2 | 
[V:1] z8 | 
[V:2] z8 | 
[V:3] z8 | 
[V:4] defga2b2- | 
[V:5] z8 | 
[V:6] D,2D3CB,A, | 
[V:1] z8 | 
[V:2] z8 | 
[V:3] z8 | 
[V:4] bag4^f2 | 
[V:5] z8 | 
[V:6] G,F,B,2A,4 | 
[V:1] z8 ||  
[V:2] z8 ||  
[V:3] z8 ||  
[V:4] g8 ||  
[V:5] z8 ||  
[V:6] G,8 ||  
[V:1]  [K:F] [K:clef=treble][M:2/1]z8 | 
[V:2]  [K:F] [K:clef=treble][M:2/1]G8 | 
[V:3]  [K:F] [K:clef=treble-8][M:2/1]z8 | 
[V:4]  [K:F] [K:clef=treble-8][M:2/1]z8 | 
[V:5]  [K:F] [K:clef=bass][M:2/1]z4G,4- | 
[V:6]  [K:F] [K:clef=bass][M:2/1]z8 | 
[V:1] d8 | 
[V:2] D4F4- | 
[V:3] z8 | 
[V:4] z8 | 
[V:5] G,4D,4 | 
[V:6] z8 | 
[V:1] A4c4- | 
[V:2] F2EDC3D | 
[V:3] z8 | 
[V:4] z8 | 
[V:5] F,6E,D, | 
[V:6] z8 | 
[V:1] c4d4- | 
[V:2] E4D4 | 
[V:3] g8 | 
[V:4] z8 | 
[V:5] C,2C2B,2G,2 | 
[V:6] z4G,4- | 
[V:1] d8 | 
[V:2] z8 | 
[V:3] d4f4- | 
[V:4] d8 | 
[V:5] B,4A,4 | 
[V:6] G,4D,4 | 
[V:1] z8 | 
[V:2] z8 | 
[V:3] f8 | 
[V:4] A4c4- | 
[V:5] z8 | 
[V:6] F,6E,D, | 
[V:1] z8 | 
[V:2] z4G4- | 
[V:3] g3fe4 | 
[V:4] c2BAG4 | 
[V:5] C8 | 
[V:6] C,8 | 
[V:1] z8 | 
[V:2] G4D4 | 
[V:3] d4z2d2- | 
[V:4] g8 | 
[V:5] G,4B,4- | 
[V:6] z4G,4- | 
[V:1] d8 | 
[V:2] G4A3G | 
[V:3] d2G2d4 | 
[V:4] d4f4- | 
[V:5] B,4A,4- | 
[V:6] G,4D,4 | 
[V:1] A4c4- | 
[V:2] F4E4 | 
[V:3] c6G2 | 
[V:4] f2cdefg2 | 
[V:5] A,2F,2G,4 | 
[V:6] F,3E,/D,/C,4 | 
[V:1] c4d4- | 
[V:2] F4D3E | 
[V:3] A4B4- | 
[V:4] c2f4d2- | 
[V:5] F,8- | 
[V:6] z4B,,4- | 
[V:1] d4c4- | 
[V:2] F2F,G,A,B,CD | 
[V:3] B4A2F2 | 
[V:4] def2FGAB | 
[V:5] F,8 | 
[V:6] B,,4F,4 | 
[V:1] c2c2c4 | 
[V:2] E2F4E2 | 
[V:3] G8 | 
[V:4] c8- | 
[V:5] z8 | 
[V:6] C,8 | 
[V:1] A8 | 
[V:2] F8 | 
[V:3] F4z4 | 
[V:4] c4A4 | 
[V:5] z4C4 | 
[V:6] F,8 | 
[V:1] z8 | 
[V:2] D4z4 | 
[V:3] z2d2e2f2 | 
[V:4] G4z4 | 
[V:5] B,4A,4 | 
[V:6] z4C4 | 
[V:1] z4c4 | 
[V:2] z8 | 
[V:3] g4z4 | 
[V:4] z2d2e2f2 | 
[V:5] G,4z4 | 
[V:6] B,4A,4 | 
[V:1] B4A4 | 
[V:2] z2G2E2F2 | 
[V:3] z4c4 | 
[V:4] g4z4 | 
[V:5] z2G,2A,2F,2 | 
[V:6] G,4z4 | 
[V:1] G4c4 | 
[V:2] D4z4 | 
[V:3] B4A4 | 
[V:4] z2g2e2f2 | 
[V:5] G,4z4 | 
[V:6] z2G,2A,2F,2 | 
[V:1] B4A4 | 
[V:2] z2G2E2F2 | 
[V:3] G4c4 | 
[V:4] d4z4 | 
[V:5] z2G,2A,2F,2 | 
[V:6] G,4z4 | 
[V:1] G4z4 | 
[V:2] D4z2D2 | 
[V:3] B4A4 | 
[V:4] z2g2a2f2 | 
[V:5] G,4D,4 | 
[V:6] z4z2D,2 | 
[V:1] z2G2A2F2 | 
[V:2] B,2C2A,4 | 
[V:3] G4z4 | 
[V:4] g4z2d2 | 
[V:5] z4z2D,2 | 
[V:6] _E,2C,2F,4 | 
[V:1] G4F2A2- | 
[V:2] z4z2D2 | 
[V:3] z2G2A2F2 | 
[V:4] B2c2A4 | 
[V:5] _E,2C,2F,4 | 
[V:6] _E,4D,4 | 
[V:1] AGG4^F2 | 
[V:2] _E2C2D4 | 
[V:3] G4A4 | 
[V:4] z8 | 
[V:5] _E,4D,4 | 
[V:6] z8 | 
[V:1] G8 | 
[V:2] B,4G,2G2- | 
[V:3] G4z4 | 
[V:4] z2G2d3c | 
[V:5] z8 | 
[V:6] z4z2G,2 | 
[V:1] z8 | 
[V:2] G2F2G4 | 
[V:3] z4z2G2 | 
[V:4] B2A2G4 | 
[V:5] z2D,2D3C | 
[V:6] D3CB,3A, | 
[V:1] z8 | 
[V:2] z8 | 
[V:3] d3c/d/edd2- | 
[V:4] z8 | 
[V:5] B,2A,2G,2F,2 | 
[V:6] G,2F,2B,2A,2- | 
[V:1] z4z2D2 | 
[V:2] z8 | 
[V:3] d2c2d4- | 
[V:4] z2G2A4 | 
[V:5] E,4D,4 | 
[V:6] A,G,G,4^F,2 | 
[V:1] d3cB3A | 
[V:2] z2G,2D3C/D/ | 
[V:3] d4z4 | 
[V:4] B6G2- | 
[V:5] z8 | 
[V:6] G,8 | 
[V:1] G2F2E4 | 
[V:2] EDD4^C2 | 
[V:3] z8 | 
[V:4] GAB2G2A2 | 
[V:5] z8 | 
[V:6] z8 | 
[V:1] D4z4 | 
[V:2] D4z4 | 
[V:3] z2d3cc2- | 
[V:4] B3cd2e2 | 
[V:5] z2B,2A,2G,2- | 
[V:6] G,4F,2E,2 | 
[V:1] z8 | 
[V:2] z4G4- | 
[V:3] c2=B2c4 | 
[V:4] f3de4 | 
[V:5] G,2F,2G,4- | 
[V:6] D,4C,4 | 
[V:1] z2d3cc2- | 
[V:2] G4F2E2 | 
[V:3] z8 | 
[V:4] d2B4c2 | 
[V:5] G,4z4 | 
[V:6] z8 | 
[V:1] c2=B2c4 | 
[V:2] D4C2F2 | 
[V:3] z2G2A4 | 
[V:4] G4z4 | 
[V:5] z4z2F,2 | 
[V:6] z8 | 
[V:1] z2G2A3B | 
[V:2] D2E2C4 | 
[V:3] B4A2F2 | 
[V:4] z2g3ff2 | 
[V:5] G,2E,2F,4 | 
[V:6] z4z2F,2 | 
[V:1] c4A4 | 
[V:2] z2G,2A,3B, | 
[V:3] c4F2A2 | 
[V:4] e2g3ff2- | 
[V:5] C,4z4 | 
[V:6] G,2E,2F,4 | 
[V:1] z4z2A2 | 
[V:2] C4z2C2 | 
[V:3] G4F4 | 
[V:4] f2e2f4 | 
[V:5] z2G,2A,2F,2 | 
[V:6] C,4z4 | 
[V:1] B4A4 | 
[V:2] B,2G,2D4- | 
[V:3] z4z2A2 | 
[V:4] d4z2d2 | 
[V:5] G,4D,4 | 
[V:6] z2G,2A,2F,2 | 
[V:1] G2d3cBA | 
[V:2] D2G4F2 | 
[V:3] B4A4 | 
[V:4] B2G2d4- | 
[V:5] z4z2D,2 | 
[V:6] G,4D,4 | 
[V:1] B3AB2A2 | 
[V:2] G4z4 | 
[V:3] G4d4- | 
[V:4] d2g4f2 | 
[V:5] G,3F,G,2A,2 | 
[V:6] z4z2D,2 | 
[V:1] z8 | 
[V:2] z8 | 
[V:3] d8 | 
[V:4] g4z4 | 
[V:5] B,3A,G,2F,2 | 
[V:6] G,3F,G,2A,2 | 
[V:1] z8 | 
[V:2] z4z2G,2 | 
[V:3] z2d4c2 | 
[V:4] z8 | 
[V:5] G,2D,2E,4 | 
[V:6] B,6A,G, | 
[V:1] A8- | 
[V:2] D3CD2E2 | 
[V:3] f3ed2c2 | 
[V:4] z4z2A2 | 
[V:5] D,4z4 | 
[V:6] A,4z4 | 
[V:1] A8 | 
[V:2] F3ED2C2 | 
[V:3] d2A2z4 | 
[V:4] d3cd2e2 | 
[V:5] z8 | 
[V:6] z8 | 
[V:1] z2A4G2 | 
[V:2] D2A,2B,4 | 
[V:3] z8 | 
[V:4] f6ed | 
[V:5] z8 | 
[V:6] z4z2D2- | 
[V:1] A8 | 
[V:2] A,4z4 | 
[V:3] z4f4 | 
[V:4] e4d4 | 
[V:5] z4z2D2- | 
[V:6] D2C2D2D,2 | 
[V:1] z8 | 
[V:2] z8 | 
[V:3] g4f3e/d/ | 
[V:4] G4z4 | 
[V:5] D2C2D2D,2 | 
[V:6] E,4D,2D2- | 
[V:1] z8 | 
[V:2] z8 | 
[V:3] g4f2ed | 
[V:4] z8 | 
[V:5] E,4D,2G,2- | 
[V:6] D2C2D2B,2- | 
[V:1] z8 | 
[V:2] z4z2G2- | 
[V:3] edd4^c2 | 
[V:4] z8 | 
[V:5] G,F,E,D,E,4 | 
[V:6] B,A,G,F,G,4 | 
[V:1] z4B4 | 
[V:2] G2F2G2G,2 | 
[V:3] d8 | 
[V:4] z4z2g2- | 
[V:5] D,4z4 | 
[V:6] A,4G,4 | 
[V:1] c4B3A/G/ | 
[V:2] A,4G,2G2- | 
[V:3] z8 | 
[V:4] g2f2g2G2 | 
[V:5] z8 | 
[V:6] z8 | 
[V:1] c4B2AG | 
[V:2] G2F2G2E2- | 
[V:3] z8 | 
[V:4] A4G2c2- | 
[V:5] z8 | 
[V:6] z8 | 
[V:1] AGG4^F2 | 
[V:2] EDCB,C2D2- | 
[V:3] z8 | 
[V:4] cBAGA4 | 
[V:5] z8 | 
[V:6] z4z2D,2 | 
[V:1] G4z4 | 
[V:2] DCB,A,B,2A,2 | 
[V:3] d8- | 
[V:4] G2g4f2 | 
[V:5] z4z2D,2 | 
[V:6] G,3F,G,2A,2 | 
[V:1] z8 | 
[V:2] G,2B,4A,2 | 
[V:3] d8 | 
[V:4] g4z4 | 
[V:5] G,3F,G,2A,2 | 
[V:6] B,3A,G,2F,2 | 
[V:1] z8 | 
[V:2] z8 | 
[V:3] z2d4c2 | 
[V:4] z4z2G2 | 
[V:5] B,6A,G, | 
[V:6] G,2D,2E,4 | 
[V:1] A8- | 
[V:2] z4z2A,2 | 
[V:3] f3ed2c2 | 
[V:4] d3cd2e2 | 
[V:5] A,4z4 | 
[V:6] D,4z4 | 
[V:1] A8 | 
[V:2] D3CD2E2 | 
[V:3] d2A2z4 | 
[V:4] f3ed2c2 | 
[V:5] z8 | 
[V:6] z8 | 
[V:1] z2A4G2 | 
[V:2] F6ED | 
[V:3] z8 | 
[V:4] d2A2B4 | 
[V:5] z4z2D2- | 
[V:6] z8 | 
[V:1] A8 | 
[V:2] E4D4 | 
[V:3] z4f4 | 
[V:4] A4z4 | 
[V:5] D2C2D2D,2 | 
[V:6] z4z2D2- | 
[V:1] z8 | 
[V:2] G,4z4 | 
[V:3] g4f3e/d/ | 
[V:4] z8 | 
[V:5] E,4D,2D2- | 
[V:6] D2C2D2D,2 | 
[V:1] z8 | 
[V:2] z8 | 
[V:3] g4f2ed | 
[V:4] z8 | 
[V:5] D2C2D2B,2- | 
[V:6] E,4D,2G,2- | 
[V:1] z8 | 
[V:2] z8 | 
[V:3] edd4^c2 | 
[V:4] z4z2g2- | 
[V:5] B,A,G,F,G,4 | 
[V:6] G,F,E,D,E,4 | 
[V:1] z4B4 | 
[V:2] z4z2G2- | 
[V:3] d8 | 
[V:4] g2f2g2G2 | 
[V:5] A,4G,4 | 
[V:6] D,4z4 | 
[V:1] c4B3A/G/ | 
[V:2] G2F2G2G,2 | 
[V:3] z8 | 
[V:4] A4G2g2- | 
[V:5] z8 | 
[V:6] z8 | 
[V:1] c4B2AG | 
[V:2] A,4G,2C2- | 
[V:3] z8 | 
[V:4] g2f2g2e2- | 
[V:5] z8 | 
[V:6] z8 | 
[V:1] AGG4^F2 | 
[V:2] CB,A,G,A,4 | 
[V:3] z8 | 
[V:4] edcBA4 | 
[V:5] z8 | 
[V:6] z8 | 
[V:1] G8 | 
[V:2] G,4z4 | 
[V:3] z8 | 
[V:4] B6b2- | 
[V:5] z4z2G,2- | 
[V:6] z4G,4- | 
[V:1] d8 | 
[V:2] z2D2B,2G,2 | 
[V:3] d8 | 
[V:4] b2a2g3f | 
[V:5] G,2A,2B,4 | 
[V:6] G,2F,2G,4 | 
[V:1] _e3dc4 | 
[V:2] G3FE4 | 
[V:3] c8 | 
[V:4] _e2c2g4- | 
[V:5] G,8- | 
[V:6] C,8 | 
[V:1] B3cd3e | 
[V:2] D2G,2B,3C | 
[V:3] d8- | 
[V:4] g4z2g2- | 
[V:5] G,4z2G,2 | 
[V:6] z2G,4F,E, | 
[V:1] f4e4- | 
[V:2] D4E4 | 
[V:3] d4G3A | 
[V:4] g2f2g2g2 | 
[V:5] A,3B,C4 | 
[V:6] D,4C,4 | 
[V:1] e4d4- | 
[V:2] F3ED2B,2 | 
[V:3] B8 | 
[V:4] d3ef4 | 
[V:5] F,8 | 
[V:6] B,,8 | 
[V:1] d4c4- | 
[V:2] C4z2C2- | 
[V:3] A2F2G4 | 
[V:4] c2f4e2 | 
[V:5] z8 | 
[V:6] F,4C,4 | 
[V:1] c8- | 
[V:2] C2A,4G,F, | 
[V:3] F8 | 
[V:4] f8- | 
[V:5] z2C4A,2- | 
[V:6] z8 | 
[V:1] c8 | 
[V:2] F,4F4- | 
[V:3] c4z4 | 
[V:4] f4z2c2- | 
[V:5] A,2G,F,F,4 | 
[V:6] z2C4A,2- | 
[V:1] z2c4A2- | 
[V:2] F8- | 
[V:3] c4c4 | 
[V:4] c2A4GF | 
[V:5] z4z2F,2- | 
[V:6] A,2G,F,F,4 | 
[V:1] A2GFF4 | 
[V:2] F4z2F2- | 
[V:3] d8- | 
[V:4] F4z4 | 
[V:5] F,2D,4C,B,, | 
[V:6] D,2F,4D,2- | 
[V:1] z4z2f2- | 
[V:2] F2D4CB, | 
[V:3] d8 | 
[V:4] z2f4d2- | 
[V:5] B,,4F,4- | 
[V:6] D,2C,B,,B,,4- | 
[V:1] f2d4cB | 
[V:2] B,4F4- | 
[V:3] z4z2d2- | 
[V:4] d2cBB4 | 
[V:5] F,8- | 
[V:6] B,,8 | 
[V:1] A4z4 | 
[V:2] F4z4 | 
[V:3] d2c2d2e2 | 
[V:4] z2FGABc2- | 
[V:5] F,4z2G,2- | 
[V:6] z2F,4E,2 | 
[V:1] z8 | 
[V:2] z8 | 
[V:3] f4e4 | 
[V:4] c2B2c4 | 
[V:5] G,2F,2G,2A,2 | 
[V:6] D,4C,4 | 
[V:1] z2G4F2 | 
[V:2] z2D4C2 | 
[V:3] d2G2c2A2 | 
[V:4] G4z4 | 
[V:5] B,4A,4 | 
[V:6] B,4z4 | 
[V:1] G4A4 | 
[V:2] D2E2F4 | 
[V:3] B4A4 | 
[V:4] z4z2d2- | 
[V:5] G,3F,D,4 | 
[V:6] z2G,4F,2 | 
[V:1] B2A4G2 | 
[V:2] E4D2D2- | 
[V:3] z8 | 
[V:4] d2c2d4 | 
[V:5] z4z2G,2 | 
[V:6] G,2A,2B,4 | 
[V:1] A8 | 
[V:2] D2C2D4 | 
[V:3] z8 | 
[V:4] e4f3e | 
[V:5] C2A,4F,2 | 
[V:6] A,4D,4 | 
[V:1] z8 | 
[V:2] D6D2 | 
[V:3] z2G4F2 | 
[V:4] d2Bcdef2 | 
[V:5] G,4D,4 | 
[V:6] B,4A,4 | 
[V:1] z2G4F2 | 
[V:2] D4D4- | 
[V:3] G4A4 | 
[V:4] z2Bcdef2 | 
[V:5] B,4A,4 | 
[V:6] G,3F,D,4 | 
[V:1] G4A4 | 
[V:2] D8 | 
[V:3] B4A4 | 
[V:4] d2g4^f2 | 
[V:5] G,3F,D,4 | 
[V:6] z4z2D,2 | 
[V:1] B6G2 | 
[V:2] z2D2G3F | 
[V:3] G8- | 
[V:4] g4z2G2 | 
[V:5] z8 | 
[V:6] G,3F,E,3D, | 
[V:1] G8- | 
[V:2] E2D2C2G,2 | 
[V:3] G8- | 
[V:4] g3fe3d | 
[V:5] z2F,2G,3F, | 
[V:6] C,2B,,2C,4- | 
[V:1] G8- | 
[V:2] C8 | 
[V:3] G8- | 
[V:4] c2_e3dc2- | 
[V:5] _E,2C,2E,4 | 
[V:6] C,8 | 
[V:1] G8- | 
[V:2] D8 | 
[V:3] G8- | 
[V:4] c2BAB3c | 
[V:5] D,8- | 
[V:6] G,,8- | 
[V:1] G8 |]  
[V:2] B,8 |]  
[V:3] G8 |]  
[V:4] d8 |]  
[V:5] D,8 |]  
[V:6] G,,8 |]  



